X: 36628
T: Shanahan's Rambles
R: jig
M: 6/8
K: Gmajor
|:DGG BAG|dBG BAG|DGG BAG|BAA A2B|
DGG BAG|dBG BAG|DGG ABc|1 BGF G2E:|2 BGF GBc||
|:dgf edc|Bed cBA|DGG AGA|BAA ABc|
dgf edc|Bed cBA|DGG AGA|BGG GBc:|
|:d2g B2d|G2B D2B,|DEG AGA|BAA ABc|
d2g B2d|G2B D2B,|DEG AGA|1 BGG GBc:|2 BGG G3||

